;Generated with Cura_SteamEngine 15.04.6
M140 S70.0
M109 S350.0
M190 S70.0
G21        ;metric values
G90        ;absolute positioning
M82        ;set extruder to absolute mode
M107       ;start with the fan off
G28
G29
G1 Z15.0 F9000 ;move the platform down 15mm
G92 E0                  ;zero the extruded length
G1 F200 E15              ;extrude 3mm of feed stock
G92 E0                  ;zero the extruded length again
G1 F9000
;Put printing message on LCD screen
M117 Printing...
;Layer count: 18
;LAYER:0
M107
G0 F9000 X91.010 Y84.630 Z0.300
G0 X90.730 Y85.508
;TYPE:SKIRT
G1 F1200 X91.010 Y84.630 E0.04598
G1 X92.036 Y83.520 E0.12139
G1 X93.077 Y82.987 E0.17974
G1 X93.877 Y82.800 E0.22072
G1 X94.620 Y82.735 E0.25793
G1 X95.386 Y82.712 E0.29617
G1 X95.386 Y82.711 E0.29622
G1 X95.973 Y82.690 E0.32552
G1 X96.489 Y82.518 E0.35266
G1 X97.387 Y82.408 E0.39779
G1 X97.996 Y82.396 E0.42818
G1 X98.704 Y82.472 E0.46371
G1 X99.350 Y82.605 E0.49661
G1 X99.789 Y82.691 E0.51893
G1 X100.145 Y82.732 E0.53681
G1 X100.930 Y82.837 E0.57632
G1 X101.675 Y83.057 E0.61508
G1 X102.150 Y83.153 E0.63925
G1 X102.767 Y83.272 E0.67060
G1 X103.343 Y83.444 E0.70059
G1 X103.906 Y83.702 E0.73149
G1 X105.676 Y84.826 E0.83610
G1 X106.010 Y88.054 E0.99800
G1 X105.395 Y88.826 E1.04725
G1 X105.386 Y88.858 E1.04890
G1 X104.713 Y89.816 E1.10731
G1 X104.058 Y90.425 E1.15193
G1 X103.365 Y90.830 E1.19198
G1 X103.136 Y90.921 E1.20427
G1 X103.230 Y91.119 E1.21521
G1 X103.371 Y91.370 E1.22957
G1 X103.574 Y91.684 E1.24823
G1 X103.941 Y92.203 E1.27994
G1 X104.209 Y92.574 E1.30277
G1 X104.324 Y92.733 E1.31256
G1 X104.502 Y92.982 E1.32783
G1 X104.521 Y93.010 E1.32952
G1 X104.628 Y93.140 E1.33792
G1 X105.444 Y93.406 E1.38074
G1 X106.544 Y94.147 E1.44691
G1 X107.186 Y94.962 E1.49867
G1 X107.592 Y95.765 E1.54356
G1 X107.794 Y96.616 E1.58720
G1 X107.835 Y97.420 E1.62736
G1 X107.764 Y97.935 E1.65330
G1 X108.396 Y97.905 E1.68486
G1 X108.885 Y97.922 E1.70927
G1 X109.283 Y97.968 E1.72926
G1 X109.495 Y98.003 E1.73998
G1 X110.059 Y98.131 E1.76884
G1 X110.545 Y98.340 E1.79523
G1 X111.216 Y98.621 E1.83152
G1 X111.800 Y98.912 E1.86408
G1 X112.412 Y99.315 E1.90063
G1 X113.090 Y99.902 E1.94538
G1 X113.428 Y100.270 E1.97030
G1 X113.769 Y100.732 E1.99895
G1 X113.921 Y100.975 E2.01325
G1 X114.053 Y101.191 E2.02588
G1 X114.336 Y101.707 E2.05524
G1 X114.652 Y102.308 E2.08912
G1 X114.916 Y102.817 E2.11772
G1 X116.249 Y105.348 E2.26044
G1 X116.151 Y105.441 E2.26718
G1 X116.155 Y105.443 E2.26740
G1 X116.186 Y105.650 E2.27784
G1 X116.570 Y106.026 E2.30466
G1 X116.910 Y106.473 E2.33268
G1 X116.914 Y106.474 E2.33288
G1 X116.914 Y106.478 E2.33308
G1 X117.157 Y106.798 E2.35313
G1 X117.750 Y108.413 E2.43896
G1 X117.289 Y110.394 E2.54043
G1 X116.788 Y110.977 E2.57878
G1 X116.557 Y111.478 E2.60631
G1 X116.549 Y111.583 E2.61156
G1 X116.493 Y111.618 E2.61486
G1 X116.392 Y111.837 E2.62689
G1 X115.782 Y112.589 E2.67520
G1 X115.755 Y112.609 E2.67687
G1 X115.277 Y113.653 E2.73416
G1 X113.783 Y113.620 E2.80871
G1 X113.762 Y113.630 E2.80987
G1 X112.975 Y113.752 E2.84960
G1 X112.333 Y113.785 E2.88168
G1 X111.832 Y113.698 E2.90705
G1 X111.344 Y113.737 E2.93147
G1 X110.117 Y113.477 E2.99404
G1 X109.872 Y113.326 E3.00840
G1 X108.322 Y114.876 E3.11776
G1 X107.143 Y115.092 E3.17756
G1 X107.122 Y115.111 E3.17898
G1 X106.701 Y115.503 E3.20767
G1 X106.173 Y115.923 E3.24133
G1 X105.183 Y116.525 E3.29914
G1 X104.467 Y116.848 E3.33833
G1 X103.343 Y117.218 E3.39736
G1 X102.329 Y117.439 E3.44914
G1 X101.446 Y117.547 E3.49352
G1 X100.618 Y117.596 E3.53490
G1 X100.102 Y117.600 E3.56065
G1 X99.566 Y117.575 E3.58742
G1 X98.859 Y117.480 E3.62301
G1 X98.608 Y117.405 E3.63608
G1 X98.385 Y117.386 E3.64724
G1 X97.103 Y116.946 E3.71486
G1 X96.302 Y116.500 E3.76060
G1 X95.749 Y116.058 E3.79592
G1 X95.406 Y115.713 E3.82019
G1 X95.339 Y115.639 E3.82517
G1 X95.081 Y115.909 E3.84381
G1 X94.578 Y116.212 E3.87310
G1 X93.378 Y117.498 E3.96085
G1 X92.068 Y116.908 E4.03253
G1 X90.974 Y117.087 E4.08784
G1 X90.276 Y116.102 E4.14807
G1 X90.232 Y116.082 E4.15048
G1 X89.363 Y115.041 E4.21813
G1 X89.014 Y114.610 E4.24580
G1 X88.715 Y114.279 E4.26805
G1 X88.426 Y113.992 E4.28837
G1 X88.128 Y113.738 E4.30791
G1 X87.645 Y113.318 E4.33984
G1 X86.839 Y112.369 E4.40196
G1 X86.590 Y111.066 E4.46814
G1 X86.586 Y110.988 E4.47204
G1 X86.082 Y110.617 E4.50326
G1 X85.731 Y110.241 E4.52892
G1 X85.538 Y110.086 E4.54127
G1 X85.015 Y109.738 E4.57262
G1 X84.374 Y109.274 E4.61209
G1 X83.721 Y108.679 E4.65617
G1 X83.213 Y108.048 E4.69658
G1 X82.878 Y107.493 E4.72893
G1 X82.576 Y106.770 E4.76802
G1 X82.413 Y105.958 E4.80934
G1 X82.392 Y105.137 E4.85031
G1 X82.525 Y104.365 E4.88939
G1 X82.742 Y103.688 E4.92486
G1 X83.099 Y103.011 E4.96304
G1 X83.551 Y102.410 E5.00056
G1 X84.123 Y101.865 E5.03998
G1 X84.693 Y101.489 E5.07404
G1 X85.178 Y101.232 E5.10143
G1 X85.780 Y100.998 E5.13365
G1 X86.614 Y100.789 E5.17655
G1 X83.457 Y98.684 E5.36585
G1 X87.102 Y96.153 E5.58724
G1 X87.101 Y96.150 E5.58740
G1 X87.050 Y95.455 E5.62217
G1 X87.037 Y94.944 E5.64767
G1 X87.088 Y94.068 E5.69145
G1 X87.240 Y93.162 E5.73728
G1 X87.479 Y92.341 E5.77994
G1 X87.629 Y91.935 E5.80153
G1 X87.675 Y91.751 E5.81100
G1 X87.793 Y91.192 E5.83950
G1 X88.014 Y90.431 E5.87903
G1 X88.285 Y89.717 E5.91713
G1 X88.584 Y89.023 E5.95484
G1 X88.869 Y88.409 E5.98861
G1 X89.288 Y87.622 E6.03309
G1 X89.733 Y86.942 E6.07363
G1 X89.859 Y86.774 E6.08411
G1 X90.315 Y86.217 E6.12002
G1 X90.501 Y86.036 E6.13297
G1 X90.516 Y85.937 E6.13797
G1 X90.730 Y85.508 E6.16188
G0 F9000 X90.876 Y86.229
G1 F1200 X90.902 Y86.060 E6.17042
G1 X91.100 Y85.665 E6.19246
G1 X91.364 Y84.836 E6.23586
G1 X92.282 Y83.844 E6.30330
G1 X93.216 Y83.365 E6.35566
G1 X93.940 Y83.196 E6.39276
G1 X94.644 Y83.134 E6.42801
G1 X95.421 Y83.110 E6.46680
G1 X96.047 Y83.087 E6.49805
G1 X96.578 Y82.911 E6.52596
G1 X97.415 Y82.808 E6.56803
G1 X97.979 Y82.797 E6.59617
G1 X98.642 Y82.868 E6.62944
G1 X99.271 Y82.998 E6.66149
G1 X99.730 Y83.088 E6.68482
G1 X100.096 Y83.129 E6.70320
G1 X100.846 Y83.229 E6.74094
G1 X101.573 Y83.444 E6.77877
G1 X102.075 Y83.546 E6.80432
G1 X102.672 Y83.661 E6.83466
G1 X103.202 Y83.819 E6.86225
G1 X103.714 Y84.054 E6.89035
G1 X105.298 Y85.059 E6.98394
G1 X105.596 Y87.932 E7.12805
G1 X105.030 Y88.642 E7.17335
G1 X105.018 Y88.686 E7.17562
G1 X104.410 Y89.552 E7.22841
G1 X103.818 Y90.102 E7.26873
G1 X103.189 Y90.470 E7.30508
G1 X102.785 Y90.630 E7.32676
G1 X102.580 Y90.692 E7.33745
G1 X102.616 Y90.766 E7.34155
G1 X102.687 Y90.910 E7.34956
G1 X102.874 Y91.301 E7.37119
G1 X103.033 Y91.585 E7.38742
G1 X103.240 Y91.905 E7.40644
G1 X103.597 Y92.410 E7.43729
G1 X103.893 Y92.820 E7.46252
G1 X103.999 Y92.967 E7.47156
G1 X104.175 Y93.212 E7.48661
G1 X104.198 Y93.245 E7.48862
G1 X104.392 Y93.484 E7.50398
G1 X105.267 Y93.769 E7.54989
G1 X106.268 Y94.444 E7.61012
G1 X106.848 Y95.179 E7.65683
G1 X107.213 Y95.903 E7.69728
G1 X107.396 Y96.673 E7.73677
G1 X107.433 Y97.403 E7.77324
G1 X107.350 Y98.008 E7.80370
G1 X107.458 Y98.358 E7.82198
G1 X107.626 Y98.342 E7.83040
G1 X108.398 Y98.305 E7.86896
G1 X108.855 Y98.321 E7.89177
G1 X109.227 Y98.364 E7.91045
G1 X109.418 Y98.396 E7.92011
G1 X109.934 Y98.513 E7.94651
G1 X110.415 Y98.719 E7.97262
G1 X111.049 Y98.985 E8.00692
G1 X111.600 Y99.259 E8.03762
G1 X112.170 Y99.635 E8.07169
G1 X112.811 Y100.189 E8.11395
G1 X113.119 Y100.525 E8.13669
G1 X113.438 Y100.957 E8.16349
G1 X113.581 Y101.185 E8.17691
G1 X113.706 Y101.391 E8.18894
G1 X113.984 Y101.896 E8.21769
G1 X114.297 Y102.493 E8.25132
G1 X114.550 Y102.981 E8.27875
G1 X115.755 Y105.267 E8.40767
G1 X115.471 Y105.538 E8.42726
G1 X115.574 Y105.623 E8.43392
G1 X115.792 Y105.720 E8.44582
G1 X115.810 Y105.840 E8.45188
G1 X116.270 Y106.291 E8.48402
G1 X116.802 Y106.993 E8.52796
G1 X117.334 Y108.438 E8.60478
G1 X116.922 Y110.208 E8.69545
G1 X116.437 Y110.772 E8.73256
G1 X116.434 Y110.788 E8.73337
G1 X116.050 Y111.624 E8.77927
G1 X115.504 Y112.296 E8.82247
G1 X115.435 Y112.346 E8.82672
G1 X115.023 Y113.247 E8.87615
G1 X113.702 Y113.218 E8.94207
G1 X113.646 Y113.244 E8.94515
G1 X112.934 Y113.353 E8.98108
G1 X112.357 Y113.384 E9.00991
G1 X111.848 Y113.295 E9.03569
G1 X111.370 Y113.333 E9.05961
G1 X110.268 Y113.100 E9.11581
G1 X109.813 Y112.819 E9.14249
G1 X108.127 Y114.505 E9.26144
G1 X106.958 Y114.719 E9.32074
G1 X106.822 Y114.843 E9.32992
G1 X106.440 Y115.200 E9.35600
G1 X105.944 Y115.594 E9.38760
G1 X104.996 Y116.170 E9.44295
G1 X104.322 Y116.474 E9.47983
G1 X103.237 Y116.831 E9.53682
G1 X102.262 Y117.044 E9.58661
G1 X101.410 Y117.148 E9.62943
G1 X100.605 Y117.196 E9.66967
G1 X100.110 Y117.199 E9.69436
G1 X99.602 Y117.176 E9.71973
G1 X98.943 Y117.088 E9.75290
G1 X98.679 Y117.009 E9.76665
G1 X98.468 Y116.991 E9.77721
G1 X97.266 Y116.579 E9.84061
G1 X96.526 Y116.166 E9.88289
G1 X96.017 Y115.760 E9.91537
G1 X95.696 Y115.438 E9.93805
G1 X95.582 Y115.311 E9.94657
G1 X95.340 Y115.105 E9.96242
G1 X95.317 Y115.084 E9.96398
G1 X94.829 Y115.594 E9.99919
G1 X94.323 Y115.899 E10.02867
G1 X93.281 Y117.015 E10.10484
G1 X92.123 Y116.494 E10.16819
G1 X91.156 Y116.652 E10.21708
G1 X90.539 Y115.782 E10.27029
G1 X90.480 Y115.755 E10.27353
G1 X89.672 Y114.786 E10.33647
G1 X89.312 Y114.344 E10.36491
G1 X88.998 Y113.996 E10.38830
G1 X88.699 Y113.699 E10.40932
G1 X88.389 Y113.435 E10.42964
G1 X87.931 Y113.036 E10.45994
G1 X87.212 Y112.191 E10.51529
G1 X86.988 Y111.017 E10.57492
G1 X86.975 Y110.778 E10.58686
G1 X86.349 Y110.317 E10.62565
G1 X86.004 Y109.948 E10.65085
G1 X85.771 Y109.761 E10.66576
G1 X85.243 Y109.409 E10.69742
G1 X84.626 Y108.963 E10.73540
G1 X84.014 Y108.404 E10.77675
G1 X83.542 Y107.818 E10.81429
G1 X83.236 Y107.311 E10.84383
G1 X82.960 Y106.652 E10.87948
G1 X82.812 Y105.913 E10.91708
G1 X82.793 Y105.166 E10.95436
G1 X82.914 Y104.460 E10.99010
G1 X83.112 Y103.844 E11.02238
G1 X83.438 Y103.226 E11.05724
G1 X83.851 Y102.677 E11.09151
G1 X84.373 Y102.179 E11.12750
G1 X84.897 Y101.833 E11.15883
G1 X85.344 Y101.596 E11.18407
G1 X85.902 Y101.380 E11.21392
G1 X86.754 Y101.166 E11.25775
G1 X87.651 Y101.038 E11.30296
G1 X87.701 Y101.033 E11.30546
G1 X84.168 Y98.678 E11.51729
G1 X87.540 Y96.337 E11.72209
G1 X87.498 Y96.100 E11.73410
G1 X87.450 Y95.436 E11.76731
G1 X87.438 Y94.950 E11.79157
G1 X87.487 Y94.113 E11.83340
G1 X87.631 Y93.251 E11.87700
G1 X87.859 Y92.466 E11.91778
G1 X88.012 Y92.053 E11.93975
G1 X88.062 Y91.852 E11.95009
G1 X88.182 Y91.289 E11.97881
G1 X88.393 Y90.557 E12.01681
G1 X88.655 Y89.867 E12.05364
G1 X88.949 Y89.187 E12.09060
G1 X89.228 Y88.588 E12.12356
G1 X89.633 Y87.825 E12.16666
G1 X90.061 Y87.172 E12.20561
G1 X90.174 Y87.020 E12.21506
G1 X90.610 Y86.488 E12.24938
G1 X90.876 Y86.229 E12.26790
G1 F2400 E10.76790
G0 F9000 X94.609 Y87.280
;TYPE:WALL-INNER
G1 F2400 E12.26790
G1 F1200 X94.660 Y87.555 E12.28185
G1 X94.763 Y87.774 E12.29393
G1 X94.984 Y88.065 E12.31216
G1 X95.125 Y88.197 E12.32179
G1 X95.284 Y88.316 E12.33170
G1 X95.493 Y88.420 E12.34335
G1 X95.725 Y88.467 E12.35516
G1 X95.977 Y88.453 E12.36775
G1 X96.029 Y88.431 E12.37057
G1 X96.344 Y88.488 E12.38654
G1 X96.479 Y88.493 E12.39328
G1 X96.666 Y88.472 E12.40267
G1 X96.827 Y88.408 E12.41131
G1 X97.018 Y88.277 E12.42286
G1 X97.107 Y88.121 E12.43182
G1 X97.158 Y88.111 E12.43442
G1 X97.359 Y88.022 E12.44538
G1 X97.567 Y87.800 E12.46056
G1 X97.875 Y87.630 E12.47811
G1 X97.895 Y87.623 E12.47917
G1 X97.788 Y87.837 E12.49111
G1 X97.788 Y88.164 E12.50742
G1 X97.970 Y88.464 E12.52493
G1 X98.455 Y88.751 E12.55304
G1 X98.506 Y88.716 E12.55613
G1 X98.533 Y88.764 E12.55888
G1 X98.920 Y88.804 E12.57829
G1 X98.766 Y89.169 E12.59805
G1 X98.658 Y89.624 E12.62138
G1 X98.613 Y90.183 E12.64936
G1 X98.595 Y90.683 E12.67432
G1 X98.570 Y91.473 E12.71375
G1 X98.966 Y92.000 E12.74664
G1 X99.206 Y92.442 E12.77174
G1 X99.503 Y93.061 E12.80599
G1 X99.771 Y93.537 E12.83324
G1 X100.094 Y94.036 E12.86290
G1 X100.514 Y94.632 E12.89927
G1 X100.812 Y95.045 E12.92468
G1 X101.123 Y95.479 E12.95132
G1 X101.511 Y95.965 E12.98234
G1 X101.899 Y96.431 E13.01260
G1 X102.087 Y96.731 E13.03026
G1 X102.241 Y96.878 E13.04088
G1 X102.463 Y96.981 E13.05309
G1 X103.095 Y97.082 E13.08502
G1 X103.588 Y97.219 E13.11055
G1 X103.620 Y97.241 E13.11249
G1 X103.559 Y97.687 E13.13495
G1 X103.548 Y97.745 E13.13789
G1 X103.526 Y98.035 E13.15240
G1 X103.581 Y98.602 E13.18082
G1 X103.845 Y99.537 E13.22929
G1 X104.074 Y100.179 E13.26330
G1 X104.243 Y100.664 E13.28892
G1 X104.577 Y101.736 E13.34494
G1 X104.769 Y102.254 E13.37250
G1 X104.874 Y102.481 E13.38498
G1 X105.283 Y102.832 E13.41187
G1 X106.083 Y102.516 E13.45478
G1 X106.724 Y102.318 E13.48825
G1 X107.404 Y102.179 E13.52288
G1 X108.414 Y102.109 E13.57339
G1 X108.692 Y102.127 E13.58729
G1 X108.756 Y102.142 E13.59057
G1 X109.459 Y102.439 E13.62864
G1 X109.703 Y102.560 E13.64223
G1 X109.869 Y102.669 E13.65214
G1 X110.183 Y102.946 E13.67303
G1 X110.409 Y103.282 E13.69323
G1 X110.916 Y104.227 E13.74673
G1 X110.359 Y104.444 E13.77655
G1 X109.732 Y104.805 E13.81265
G1 X109.265 Y105.184 E13.84266
G1 X109.132 Y105.319 E13.85211
G1 X109.098 Y105.278 E13.85477
G1 X109.094 Y105.181 E13.85961
G1 X108.975 Y104.793 E13.87986
G1 X108.451 Y103.996 E13.92745
G1 X108.250 Y103.650 E13.94741
G1 X107.494 Y103.461 E13.98629
G1 X107.294 Y103.923 E14.01140
G1 X107.048 Y104.230 E14.03103
G1 X106.946 Y104.327 E14.03805
G1 X106.608 Y104.486 E14.05669
G1 X106.131 Y104.647 E14.08180
G1 X105.676 Y104.819 E14.10607
G1 X105.520 Y104.905 E14.11496
G1 X105.365 Y105.026 E14.12477
G1 X105.220 Y105.243 E14.13779
G1 X105.183 Y105.439 E14.14774
G1 X104.393 Y105.633 E14.18833
G1 X103.878 Y105.734 E14.21451
G1 X103.411 Y105.824 E14.23824
G1 X102.864 Y106.036 E14.26750
G1 X102.352 Y106.273 E14.29565
G1 X101.835 Y106.513 E14.32409
G1 X101.730 Y106.567 E14.32998
G1 X101.715 Y106.555 E14.33094
G1 X101.874 Y105.970 E14.36118
G1 X101.884 Y105.877 E14.36585
G1 X101.951 Y105.665 E14.37694
G1 X102.023 Y104.693 E14.42557
G1 X102.027 Y104.639 E14.42827
G1 X102.016 Y104.423 E14.43906
G1 X101.957 Y104.298 E14.44596
G1 X102.031 Y103.643 E14.47884
G1 X100.872 Y102.923 E14.54691
G1 X100.659 Y102.793 E14.55936
G1 X100.029 Y102.599 E14.59225
G1 X99.775 Y103.295 E14.62921
G1 X99.773 Y103.365 E14.63271
G1 X99.685 Y103.440 E14.63848
G1 X99.670 Y103.570 E14.64500
G1 X99.330 Y103.899 E14.66861
G1 X99.232 Y104.096 E14.67959
G1 X99.177 Y104.402 E14.69510
G1 X99.225 Y104.500 E14.70054
G1 X98.924 Y104.736 E14.71962
G1 X98.819 Y104.659 E14.72612
G1 X98.307 Y104.923 E14.75486
G1 X97.781 Y105.285 E14.78672
G1 X97.552 Y105.449 E14.80077
G1 X97.289 Y105.389 E14.81423
G1 X96.611 Y105.310 E14.84828
G1 X96.122 Y105.327 E14.87269
G1 X95.949 Y105.889 E14.90203
G1 X95.754 Y106.270 E14.92338
G1 X95.475 Y106.692 E14.94862
G1 X95.415 Y106.781 E14.95398
G1 X95.181 Y106.753 E14.96573
G1 X95.124 Y107.321 E14.99421
G1 X94.760 Y107.785 E15.02363
G1 X94.723 Y107.744 E15.02639
G1 X94.450 Y107.625 E15.04125
G1 X93.933 Y107.480 E15.06804
G1 X93.503 Y107.297 E15.09135
G1 X92.947 Y107.469 E15.12039
G1 X92.838 Y107.489 E15.12592
G1 X92.479 Y107.498 E15.14383
G1 X92.254 Y107.356 E15.15711
G1 X92.291 Y107.228 E15.16375
G1 X92.307 Y107.050 E15.17267
G1 X92.283 Y106.850 E15.18272
G1 X92.167 Y106.567 E15.19798
G1 X92.124 Y106.521 E15.20112
G1 X92.189 Y106.157 E15.21957
G1 X91.442 Y105.625 E15.26532
G1 X90.975 Y105.352 E15.29231
G1 X90.698 Y105.266 E15.30678
G1 X90.388 Y105.306 E15.32237
G1 X89.849 Y105.632 E15.35380
G1 X89.423 Y106.016 E15.38241
G1 X89.018 Y106.516 E15.41451
G1 X88.689 Y106.951 E15.44172
G1 X88.565 Y107.130 E15.45259
G1 X88.022 Y106.694 E15.48733
G1 X87.410 Y106.287 E15.52400
G1 X87.023 Y106.007 E15.54783
G1 X86.788 Y105.792 E15.56372
G1 X86.632 Y105.583 E15.57673
G1 X86.611 Y105.535 E15.57935
G1 X86.601 Y105.438 E15.58421
G1 X86.627 Y105.325 E15.59000
G1 X86.699 Y105.212 E15.59668
G1 X86.845 Y105.102 E15.60580
G1 X86.930 Y105.057 E15.61060
G1 X87.053 Y105.009 E15.61719
G1 X87.488 Y104.899 E15.63957
G1 X88.101 Y104.812 E15.67046
G1 X88.686 Y104.758 E15.69977
G1 X89.291 Y104.668 E15.73029
G1 X89.815 Y104.519 E15.75747
G1 X90.328 Y104.370 E15.78412
G1 X90.738 Y104.271 E15.80516
G1 X91.208 Y104.198 E15.82889
G1 X91.849 Y104.160 E15.86092
G1 X92.170 Y103.981 E15.87926
